X:1
L:1/16
M:2/4
K:D
 (dB) | (AFDF) (AFAd) |{c} (BABd) e2de | (f2af) (e2fe) | (defd) (B2dB) | AFDF AFGA | 
{c} (BABd) (e2de) | (f2af) (e2de) | f2[Fd]2[Fd]2 :: de |{g} (fefg) (a2gf) | (efg)a (b2ag) | 
 f2af e2fe | defd B2dB | (AFDF) (AFGA) |{c} (BABd) e2de | (f2af) (e2de) | f2F2d2 |] [Fd]2 :|
